X: 1
T:Prince Albert's Farewell
M:6/8
C:
S:Chingford MM
N:based on The Barley Mow
A:Chingford
O:English
R:Jig
%P:A.(AB)$^4$.A
P:A.(AB)4.A
L:1/8
K:G
I:speed 300
P:A
|:\
d|gag fgf|efe d2 B|cBc  def|g3-g2:|\
M:2/2
L:1/4
P:B
d|B c d2|B c d2|B A G2|\
M:6/8
g3  d2 B|cBc def|g2 d B2 d|cBc def|[G3g3] [G2g2]||
